;FLAVOR:Marlin
;TIME:5594
;Filament used: 3.21087m
;Layer height: 0.2
;MINX:70.9
;MINY:75.4
;MINZ:0.3
;MAXX:149.1
;MAXY:144.6
;MAXZ:9.9
;Generated with Cura_SteamEngine 4.4.1
M140 S40
M105
M190 S40
M104 S205
M105
M109 S205
M82 ;absolute extrusion mode
G28 ;Home
G1 Z15.0 F6000 ;Move the platform down 15mm
;Prime the extruder
G92 E0
G1 F200 E3
G92 E0
G92 E0
G92 E0
G1 F2100 E-4
;LAYER_COUNT:49
;LAYER:0
M107
G0 F1200 X73.472 Y77.888 Z0.3
;TYPE:SKIRT
G1 F2100 E0
G1 F1050 X73.802 Y77.578 E0.02259
G1 X74.063 Y77.362 E0.03949
G1 X74.181 Y77.268 E0.04702
G1 X74.58 Y76.965 E0.07201
G1 X74.986 Y76.697 E0.09628
G1 X75.333 Y76.501 E0.11617
G1 X75.428 Y76.45 E0.12155
G1 X75.793 Y76.258 E0.14212
G1 X76.187 Y76.08 E0.16369
G1 X76.46 Y75.976 E0.17827
G1 X76.61 Y75.923 E0.1862
G1 X77.129 Y75.751 E0.21348
G1 X77.585 Y75.632 E0.23699
G1 X77.92 Y75.568 E0.25401
G1 X78.042 Y75.547 E0.26018
G1 X78.517 Y75.473 E0.28417
G1 X79.015 Y75.43 E0.30911
G1 X79.661 Y75.42 E0.34134
G1 X79.716 Y75.42 E0.34408
G1 X138.211 Y75.4 E3.26241
G1 X139.844 Y75.4 E3.34388
G1 X140.55 Y75.41 E3.37911
G1 X140.714 Y75.416 E3.38729
G1 X141.032 Y75.435 E3.40319
G1 X141.151 Y75.445 E3.40915
G1 X141.634 Y75.49 E3.43335
G1 X142.106 Y75.565 E3.45719
G1 X142.428 Y75.639 E3.47367
G1 X142.548 Y75.669 E3.47984
G1 X143.029 Y75.797 E3.50468
G1 X143.449 Y75.937 E3.52676
G1 X143.717 Y76.045 E3.54118
G1 X143.847 Y76.101 E3.54824
G1 X144.334 Y76.32 E3.57488
G1 X144.753 Y76.542 E3.59854
G1 X145.039 Y76.719 E3.61532
G1 X145.144 Y76.787 E3.62156
G1 X145.551 Y77.059 E3.64598
G1 X145.922 Y77.343 E3.66929
G1 X146.179 Y77.568 E3.68633
G1 X146.271 Y77.652 E3.69255
G1 X146.612 Y77.972 E3.71588
G1 X146.923 Y78.303 E3.73854
G1 X147.138 Y78.563 E3.75537
G1 X147.23 Y78.679 E3.76276
G1 X147.534 Y79.079 E3.78782
G1 X147.803 Y79.486 E3.81216
G1 X147.999 Y79.833 E3.83204
G1 X148.05 Y79.928 E3.83742
G1 X148.242 Y80.293 E3.858
G1 X148.42 Y80.687 E3.87957
G1 X148.524 Y80.96 E3.89414
G1 X148.577 Y81.11 E3.90208
G1 X148.748 Y81.626 E3.9292
G1 X148.866 Y82.076 E3.95241
G1 X148.931 Y82.413 E3.96953
G1 X148.953 Y82.541 E3.97601
G1 X149.027 Y83.016 E4
G1 X149.07 Y83.515 E4.02498
G1 X149.08 Y84.164 E4.05737
G1 X149.08 Y84.218 E4.06006
G1 X149.1 Y135.326 E6.60985
G1 X149.1 Y135.375 E6.61229
G1 X149.091 Y136.044 E6.64567
G1 X149.084 Y136.218 E6.65436
G1 X149.063 Y136.558 E6.67136
G1 X149.054 Y136.676 E6.67726
G1 X149.01 Y137.14 E6.70051
G1 X148.933 Y137.611 E6.72432
G1 X148.853 Y137.957 E6.74204
G1 X148.828 Y138.06 E6.74733
G1 X148.718 Y138.479 E6.76894
G1 X148.583 Y138.89 E6.79052
G1 X148.448 Y139.231 E6.80882
G1 X148.385 Y139.381 E6.81694
G1 X148.19 Y139.815 E6.84068
G1 X147.978 Y140.217 E6.86335
G1 X147.791 Y140.523 E6.88124
G1 X147.711 Y140.648 E6.88865
G1 X147.44 Y141.053 E6.91296
G1 X147.157 Y141.422 E6.93616
G1 X146.932 Y141.679 E6.9532
G1 X146.848 Y141.771 E6.95941
G1 X146.528 Y142.112 E6.98274
G1 X146.197 Y142.423 E7.0054
G1 X145.937 Y142.638 E7.02224
G1 X145.821 Y142.73 E7.02962
G1 X145.421 Y143.034 E7.05469
G1 X145.009 Y143.305 E7.07929
G1 X144.668 Y143.497 E7.09881
G1 X144.58 Y143.545 E7.10381
G1 X144.208 Y143.741 E7.12479
G1 X143.816 Y143.919 E7.14627
G1 X143.544 Y144.023 E7.1608
G1 X143.39 Y144.077 E7.16894
G1 X142.871 Y144.249 E7.19622
G1 X142.415 Y144.368 E7.21973
G1 X142.08 Y144.432 E7.23675
G1 X141.958 Y144.453 E7.24292
G1 X141.483 Y144.527 E7.26691
G1 X140.985 Y144.57 E7.29184
G1 X140.34 Y144.58 E7.32403
G1 X140.285 Y144.58 E7.32677
G1 X81.79 Y144.6 E10.2451
G1 X80.157 Y144.6 E10.32657
G1 X79.451 Y144.59 E10.3618
G1 X79.287 Y144.584 E10.36998
G1 X78.969 Y144.565 E10.38588
G1 X78.85 Y144.555 E10.39183
G1 X78.367 Y144.51 E10.41604
G1 X77.896 Y144.435 E10.43983
G1 X77.569 Y144.36 E10.45657
G1 X77.448 Y144.33 E10.46279
G1 X76.971 Y144.203 E10.48741
G1 X76.551 Y144.063 E10.5095
G1 X76.283 Y143.955 E10.52392
G1 X76.153 Y143.899 E10.53098
G1 X75.666 Y143.68 E10.55762
G1 X75.246 Y143.457 E10.58134
G1 X74.949 Y143.273 E10.59877
G1 X74.843 Y143.205 E10.60506
G1 X74.447 Y142.94 E10.62883
G1 X74.078 Y142.657 E10.65203
G1 X73.821 Y142.432 E10.66907
G1 X73.727 Y142.347 E10.67539
G1 X73.381 Y142.022 E10.69908
G1 X73.066 Y141.685 E10.72209
G1 X72.848 Y141.42 E10.73921
G1 X72.759 Y141.308 E10.74635
G1 X72.461 Y140.915 E10.77095
G1 X72.192 Y140.504 E10.79546
G1 X71.993 Y140.15 E10.81572
G1 X71.946 Y140.063 E10.82065
G1 X71.758 Y139.706 E10.84078
G1 X71.576 Y139.303 E10.86284
G1 X71.467 Y139.015 E10.87821
G1 X71.416 Y138.871 E10.88583
G1 X71.25 Y138.369 E10.91221
G1 X71.132 Y137.915 E10.93561
G1 X71.068 Y137.58 E10.95262
G1 X71.047 Y137.458 E10.9588
G1 X70.973 Y136.983 E10.98278
G1 X70.93 Y136.485 E11.00772
G1 X70.92 Y135.837 E11.04005
G1 X70.92 Y135.782 E11.0428
G1 X70.9 Y84.674 E13.59259
G1 X70.9 Y84.621 E13.59523
G1 X70.91 Y83.931 E13.62966
G1 X70.917 Y83.758 E13.6383
G1 X70.937 Y83.439 E13.65424
G1 X70.946 Y83.321 E13.66015
G1 X70.991 Y82.851 E13.6837
G1 X71.068 Y82.381 E13.70746
G1 X71.144 Y82.053 E13.72426
G1 X71.171 Y81.946 E13.72977
G1 X71.295 Y81.477 E13.75397
G1 X71.44 Y81.041 E13.77689
G1 X71.549 Y80.773 E13.79133
G1 X71.603 Y80.648 E13.79812
G1 X71.826 Y80.154 E13.82516
G1 X72.044 Y79.743 E13.84837
G1 X72.217 Y79.463 E13.86479
G1 X72.287 Y79.355 E13.87121
G1 X72.557 Y78.951 E13.89546
G1 X72.843 Y78.578 E13.91891
G1 X73.07 Y78.319 E13.93609
G1 X73.152 Y78.229 E13.94216
G1 X73.472 Y77.888 E13.96549
G0 F1200 X73.764 Y78.161
G1 F1050 X74.057 Y77.886 E13.98554
G1 X74.318 Y77.67 E14.00244
G1 X74.423 Y77.587 E14.00912
G1 X74.822 Y77.284 E14.03412
G1 X75.183 Y77.046 E14.05569
G1 X75.53 Y76.85 E14.07557
G1 X75.614 Y76.804 E14.08035
G1 X75.979 Y76.612 E14.10092
G1 X76.33 Y76.454 E14.12013
G1 X76.603 Y76.35 E14.1347
G1 X76.735 Y76.302 E14.14171
G1 X77.254 Y76.13 E14.16899
G1 X77.661 Y76.025 E14.18996
G1 X77.996 Y75.961 E14.20697
G1 X78.103 Y75.942 E14.2124
G1 X78.578 Y75.868 E14.23638
G1 X79.021 Y75.83 E14.25856
G1 X79.667 Y75.82 E14.29079
G1 X79.716 Y75.82 E14.29324
G1 X138.211 Y75.8 E17.21157
G1 X139.838 Y75.8 E17.29274
G1 X140.544 Y75.81 E17.32796
G1 X140.69 Y75.816 E17.33525
G1 X141.008 Y75.835 E17.35115
G1 X141.114 Y75.843 E17.35645
G1 X141.597 Y75.888 E17.38065
G1 X142.017 Y75.955 E17.40187
G1 X142.339 Y76.029 E17.41835
G1 X142.445 Y76.056 E17.42381
G1 X142.926 Y76.184 E17.44864
G1 X143.299 Y76.308 E17.46825
G1 X143.567 Y76.416 E17.48267
G1 X143.683 Y76.466 E17.48897
G1 X144.17 Y76.685 E17.51561
G1 X144.542 Y76.882 E17.53661
G1 X144.828 Y77.059 E17.55339
G1 X144.922 Y77.119 E17.55896
G1 X145.329 Y77.391 E17.58338
G1 X145.659 Y77.644 E17.60412
G1 X145.916 Y77.869 E17.62117
G1 X145.998 Y77.944 E17.62671
G1 X146.339 Y78.264 E17.65004
G1 X146.615 Y78.558 E17.67016
G1 X146.83 Y78.818 E17.68699
G1 X146.912 Y78.921 E17.69356
G1 X147.216 Y79.321 E17.71862
G1 X147.454 Y79.683 E17.74024
G1 X147.65 Y80.03 E17.76012
G1 X147.696 Y80.114 E17.7649
G1 X147.888 Y80.479 E17.78547
G1 X148.046 Y80.83 E17.80468
G1 X148.15 Y81.103 E17.81925
G1 X148.198 Y81.235 E17.82626
G1 X148.369 Y81.751 E17.85338
G1 X148.473 Y82.152 E17.87405
G1 X148.538 Y82.489 E17.89117
G1 X148.558 Y82.602 E17.8969
G1 X148.632 Y83.077 E17.92088
G1 X148.67 Y83.521 E17.94311
G1 X148.68 Y84.17 E17.9755
G1 X148.68 Y84.218 E17.97789
G1 X148.7 Y135.326 E20.52768
G1 X148.7 Y135.37 E20.52987
G1 X148.691 Y136.039 E20.56325
G1 X148.685 Y136.193 E20.57094
G1 X148.664 Y136.533 E20.58794
G1 X148.656 Y136.638 E20.59319
G1 X148.612 Y137.102 E20.61644
G1 X148.544 Y137.521 E20.63762
G1 X148.464 Y137.867 E20.65534
G1 X148.441 Y137.959 E20.66007
G1 X148.331 Y138.378 E20.68168
G1 X148.211 Y138.743 E20.70085
G1 X148.076 Y139.084 E20.71915
G1 X148.02 Y139.217 E20.72635
G1 X147.825 Y139.651 E20.75009
G1 X147.637 Y140.009 E20.77026
G1 X147.45 Y140.315 E20.78815
G1 X147.379 Y140.426 E20.79472
G1 X147.108 Y140.831 E20.81904
G1 X146.856 Y141.159 E20.83967
G1 X146.631 Y141.416 E20.85671
G1 X146.556 Y141.498 E20.86226
G1 X146.236 Y141.839 E20.88559
G1 X145.942 Y142.115 E20.90571
G1 X145.682 Y142.33 E20.92254
G1 X145.579 Y142.412 E20.92911
G1 X145.179 Y142.716 E20.95417
G1 X144.813 Y142.956 E20.97601
G1 X144.472 Y143.148 E20.99553
G1 X144.394 Y143.191 E20.99997
G1 X144.022 Y143.387 E21.02095
G1 X143.673 Y143.545 E21.04006
G1 X143.401 Y143.649 E21.05459
G1 X143.265 Y143.698 E21.06181
G1 X142.746 Y143.87 E21.08908
G1 X142.339 Y143.975 E21.11005
G1 X142.004 Y144.039 E21.12707
G1 X141.897 Y144.058 E21.13249
G1 X141.422 Y144.132 E21.15647
G1 X140.979 Y144.17 E21.17866
G1 X140.334 Y144.18 E21.21084
G1 X140.285 Y144.18 E21.21328
G1 X81.79 Y144.2 E24.13161
G1 X80.163 Y144.2 E24.21278
G1 X79.457 Y144.19 E24.24801
G1 X79.311 Y144.184 E24.2553
G1 X78.993 Y144.165 E24.27119
G1 X78.887 Y144.157 E24.2765
G1 X78.404 Y144.112 E24.3007
G1 X77.986 Y144.045 E24.32182
G1 X77.659 Y143.97 E24.33856
G1 X77.551 Y143.943 E24.34411
G1 X77.074 Y143.816 E24.36874
G1 X76.701 Y143.692 E24.38835
G1 X76.433 Y143.584 E24.40276
G1 X76.317 Y143.534 E24.40906
G1 X75.83 Y143.315 E24.4357
G1 X75.457 Y143.117 E24.45677
G1 X75.16 Y142.933 E24.4742
G1 X75.065 Y142.872 E24.47984
G1 X74.669 Y142.607 E24.50361
G1 X74.341 Y142.356 E24.52421
G1 X74.084 Y142.131 E24.54125
G1 X74.001 Y142.055 E24.54687
G1 X73.655 Y141.73 E24.57055
G1 X73.375 Y141.431 E24.59099
G1 X73.157 Y141.166 E24.60811
G1 X73.078 Y141.066 E24.61447
G1 X72.78 Y140.673 E24.63907
G1 X72.541 Y140.308 E24.66084
G1 X72.342 Y139.954 E24.6811
G1 X72.3 Y139.877 E24.68548
G1 X72.112 Y139.52 E24.7056
G1 X71.95 Y139.162 E24.72521
G1 X71.841 Y138.874 E24.74057
G1 X71.796 Y138.746 E24.74734
G1 X71.63 Y138.244 E24.77372
G1 X71.525 Y137.839 E24.79459
G1 X71.461 Y137.504 E24.81161
G1 X71.442 Y137.397 E24.81703
G1 X71.368 Y136.922 E24.84101
G1 X71.33 Y136.478 E24.86325
G1 X71.32 Y135.83 E24.89558
G1 X71.32 Y135.782 E24.89797
G1 X71.3 Y84.674 E27.44776
G1 X71.3 Y84.627 E27.45011
G1 X71.31 Y83.937 E27.48454
G1 X71.316 Y83.783 E27.49222
G1 X71.336 Y83.464 E27.50817
G1 X71.345 Y83.359 E27.51343
G1 X71.39 Y82.889 E27.53698
G1 X71.458 Y82.472 E27.55806
G1 X71.534 Y82.144 E27.57486
G1 X71.557 Y82.048 E27.57979
G1 X71.681 Y81.579 E27.60399
G1 X71.811 Y81.191 E27.6244
G1 X71.92 Y80.923 E27.63884
G1 X71.967 Y80.812 E27.64485
G1 X72.19 Y80.318 E27.67189
G1 X72.385 Y79.953 E27.69254
G1 X72.558 Y79.673 E27.70896
G1 X72.619 Y79.577 E27.71463
G1 X72.889 Y79.173 E27.73887
G1 X73.143 Y78.842 E27.75969
G1 X73.37 Y78.583 E27.77687
G1 X73.444 Y78.502 E27.78235
G1 X73.764 Y78.161 E27.80568
G1 F2100 E23.80568
G0 F1200 X79.787 Y83.4
;TYPE:SUPPORT
G1 F2100 E27.80568
G1 F1050 X82.214 Y83.4 E27.92676
G1 X83.425 Y85.5 E28.0477
G1 X82.214 Y87.6 E28.16864
G1 X79.786 Y87.6 E28.28978
G1 X78.575 Y85.5 E28.41072
G1 X79.787 Y83.4 E28.53168
G0 F1200 X79.995 Y83.56
G1 F1050 X79.995 Y87.44 E28.72526
G1 F2100 E24.72526
G0 F1200 X78.86 Y85.328
G1 F2100 E28.72526
G1 F1050 X83.141 Y85.328 E28.93884
G1 F2100 E24.93884
G0 F1200 X82.213 Y132.4
G1 F2100 E28.93884
G1 F1050 X83.425 Y134.5 E29.0598
G1 X82.213 Y136.6 E29.18077
G1 X79.787 Y136.6 E29.3018
G1 X78.575 Y134.5 E29.42277
G1 X79.787 Y132.4 E29.54374
G1 X82.213 Y132.4 E29.66477
G1 F2100 E25.66477
G0 F1200 X82.562 Y133.325
G1 F2100 E29.66477
G1 F1050 X79.437 Y133.325 E29.82068
G1 F2100 E25.82068
G0 F1200 X79.995 Y132.56
G1 F2100 E29.82068
G1 F1050 X79.995 Y136.44 E30.01425
G1 F2100 E26.01425
G0 F1200 X136.575 Y134.5
G1 F2100 E30.01425
G1 F1050 X137.786 Y132.4 E30.13519
G1 X140.214 Y132.4 E30.25633
G1 X141.425 Y134.5 E30.37727
G1 X140.213 Y136.6 E30.49823
G1 X137.786 Y136.6 E30.61932
G1 X136.575 Y134.5 E30.74026
G1 F2100 E26.74026
G0 F1200 X137.438 Y133.325
G1 F2100 E30.74026
G1 F1050 X140.563 Y133.325 E30.89617
G1 F2100 E26.89617
G0 F1200 X138.658 Y132.56
G1 F2100 E30.89617
G1 F1050 X138.658 Y136.44 E31.08974
G1 F2100 E27.08974
G0 F1200 X137.786 Y87.6
G1 F2100 E31.08974
G1 F1050 X136.575 Y85.5 E31.21068
G1 X137.787 Y83.4 E31.33165
G1 X140.214 Y83.4 E31.45273
G1 X141.425 Y85.5 E31.57367
G1 X140.214 Y87.6 E31.69462
G1 X137.786 Y87.6 E31.81575
G1 F2100 E27.81575
G0 F1200 X138.658 Y87.44
G1 F2100 E31.81575
G1 F1050 X138.658 Y83.56 E32.00932
G1 F2100 E28.00932
G0 F1200 X136.859 Y85.328
G1 F2100 E32.00932
G1 F1050 X141.142 Y85.328 E32.223
G1 F2100 E28.223
;MESH:Soporte_anet_et_raspberry.stl
G0 F1200 X141.917 Y79.837
;TYPE:WALL-INNER
G1 F2100 E32.223
G1 F1050 X142.574 Y80.122 E32.25873
G1 X143.191 Y80.523 E32.29544
G1 X143.728 Y81.013 E32.33171
G1 X144.172 Y81.58 E32.36764
G1 X144.52 Y82.22 E32.40399
G1 X144.76 Y82.911 E32.44048
G1 X144.88 Y83.618 E32.47626
G1 X144.9 Y135.981 E35.08866
G1 X144.842 Y136.707 E35.12499
G1 X144.663 Y137.418 E35.16157
G1 X144.378 Y138.074 E35.19726
G1 X143.977 Y138.691 E35.23397
G1 X143.487 Y139.228 E35.27024
G1 X142.92 Y139.672 E35.30616
G1 X142.28 Y140.02 E35.34251
G1 X141.589 Y140.26 E35.379
G1 X140.882 Y140.38 E35.41478
G1 X81.788 Y140.4 E38.36299
G1 X79.523 Y140.4 E38.47599
G1 X78.793 Y140.342 E38.51253
G1 X78.083 Y140.163 E38.54906
G1 X77.426 Y139.878 E38.58479
G1 X76.809 Y139.477 E38.6215
G1 X76.272 Y138.987 E38.65777
G1 X75.828 Y138.42 E38.6937
G1 X75.48 Y137.78 E38.73004
G1 X75.24 Y137.089 E38.76654
G1 X75.12 Y136.382 E38.80231
G1 X75.1 Y84.019 E41.41471
G1 X75.158 Y83.293 E41.45105
G1 X75.337 Y82.583 E41.48758
G1 X75.622 Y81.926 E41.52331
G1 X76.023 Y81.309 E41.56002
G1 X76.513 Y80.772 E41.59629
G1 X77.08 Y80.328 E41.63222
G1 X77.72 Y79.98 E41.66856
G1 X78.411 Y79.74 E41.70506
G1 X79.118 Y79.62 E41.74083
G1 X138.212 Y79.6 E44.68904
G1 X140.477 Y79.6 E44.80205
G1 X141.207 Y79.658 E44.83858
G1 X141.917 Y79.837 E44.87511
G1 F2100 E40.87511
G0 F1200 X136.921 Y89.1
G1 F2100 E44.87511
G1 F1050 X141.079 Y89.1 E45.08255
G1 X143.157 Y85.5 E45.28993
G1 X141.079 Y81.9 E45.49731
G1 X136.922 Y81.9 E45.7047
G1 X134.843 Y85.5 E45.91211
G1 X136.661 Y88.649 E46.09351
G1 X136.921 Y89.1 E46.11949
G1 F2100 E42.11949
G0 F1200 X126.22 Y88.175
G1 F2100 E46.11949
G1 F1050 X125.95 Y87.418 E46.15958
G1 X125.527 Y86.753 E46.1989
G1 X124.961 Y86.186 E46.23887
G1 X124.282 Y85.758 E46.27892
G1 X123.525 Y85.49 E46.31898
G1 X122.76 Y85.402 E46.3574
G1 X97.255 Y85.4 E47.62985
G1 X96.505 Y85.482 E47.66749
G1 X95.748 Y85.742 E47.70742
G1 X95.064 Y86.166 E47.74757
G1 X94.493 Y86.728 E47.78754
G1 X94.051 Y87.416 E47.82834
G1 X93.78 Y88.174 E47.8685
G1 X93.688 Y88.956 E47.90778
G1 X93.764 Y89.752 E47.94768
G1 X94.018 Y90.514 E47.98775
G1 X94.436 Y91.201 E48.02787
G1 X94.971 Y91.754 E48.06626
G1 X107.744 Y102.211 E48.88982
G1 X108.34 Y102.603 E48.92541
G1 X109.047 Y102.879 E48.96327
G1 X109.794 Y103.002 E49.00104
G1 X110.552 Y102.967 E49.0389
G1 X111.287 Y102.772 E49.07684
G1 X111.964 Y102.426 E49.11477
G1 X125.017 Y91.765 E49.95559
G1 X125.545 Y91.225 E49.99327
G1 X125.967 Y90.543 E50.03328
G1 X126.227 Y89.784 E50.07331
G1 X126.312 Y88.988 E50.11325
G1 X126.22 Y88.175 E50.15407
G1 F2100 E46.15407
G0 F1200 X119.431 Y109.194
G1 F2100 E50.15407
G1 F1050 X119.339 Y109.998 E50.19444
G1 X119.423 Y110.776 E50.23348
G1 X119.679 Y111.527 E50.27306
G1 X120.094 Y112.206 E50.31277
G1 X120.625 Y112.755 E50.35087
G1 X133.245 Y123.086 E51.16455
G1 X133.853 Y123.483 E51.20077
G1 X134.571 Y123.76 E51.23917
G1 X135.335 Y123.878 E51.27774
G1 X136.108 Y123.832 E51.31637
G1 X136.851 Y123.62 E51.35492
G1 X137.533 Y123.255 E51.39351
G1 X138.119 Y122.753 E51.43201
G1 X138.586 Y122.137 E51.47057
G1 X138.911 Y121.436 E51.50912
G1 X139.08 Y120.681 E51.54772
G1 X139.1 Y99.689 E52.59502
G1 X139.024 Y98.966 E52.63128
G1 X138.781 Y98.233 E52.66981
G1 X138.39 Y97.568 E52.7083
G1 X137.864 Y97 E52.74692
G1 X137.228 Y96.559 E52.78553
G1 X136.515 Y96.264 E52.82403
G1 X135.755 Y96.127 E52.86256
G1 X134.983 Y96.154 E52.90109
G1 X134.234 Y96.346 E52.93967
G1 X133.542 Y96.694 E52.97831
G1 X120.637 Y107.235 E53.80963
G1 X120.114 Y107.769 E53.84692
G1 X119.694 Y108.443 E53.88654
G1 X119.431 Y109.194 E53.92624
G1 F2100 E49.92624
G0 F1200 X104.484 Y112.797
G1 F2100 E53.92624
G1 F1050 X104.753 Y113.564 E53.96679
G1 X105.183 Y114.247 E54.00706
G1 X105.753 Y114.817 E54.04727
G1 X106.436 Y115.247 E54.08754
G1 X107.197 Y115.513 E54.12776
G1 X107.967 Y115.6 E54.16642
G1 X111.861 Y115.6 E54.36069
G1 X112.428 Y115.576 E54.389
G1 X113.191 Y115.402 E54.42805
G1 X113.918 Y115.051 E54.46832
